X:35
T:Breakdown
T:The Nigger Tune
M:2/4
L:1/16
Z: Jason R. Fruit <Jason R. Fruit@big-mac>
R: breakdown
N: From the playing of Bill Driver.  Has a piano accompaniment in Christeson.
K:A
AF | EFAB [ec]2[eB]2 | Aceg a2ga | b2fg aecA| dcBA cABA |
EFAB [ec]2[eB]2 | Aceg a2gf | efga befg | a2ab a2 :|
|: cd | ecac ecac | ecac fcec | fBgB fBgB | fBgB fcec |
ecac ecac | ecac fcec | efga befg | a2ab a2 :|

